X: 57
T: Missa Prolationum / Agnus Dei
N: Derived from Ock1011e-Missa_Prolationum-Agnus.krn
C: Johannes Ockeghem
%%abc-version 2.0
%%abcx-abcm2ps-target-version 5.9.1 (29 Sep 2008)
%%abc-creator hum2abc beta
%%abcx-conversion-date 2019/02/17 07:26:15
%%abc-edited-by Jesse Rodin
%%abc-edited-by Chris Gage 08-20-2012
%%abcx-initial-encoding-date 2014/05/13/
%%humdrum-veritas 762349609
%%humdrum-veritas-data 3309028281
%%linebreak <none>
%%barnumbers 0
L: 1/4
M: 3/1
Q: 1/2=120
%%staves [1 2 3 4]
V: 1 clef=treble
V: 2 clef=treble-8
V: 3 clef=treble-8
V: 4 clef=bass
K: C
[V:1] F6G2A4 | 
[V:2] z12 | 
[V:3] f6d2c4 | 
[V:4] z12 | 
[V:1] _B4A2F4G2 | 
[V:2] z12 | 
[V:3] _B2G2F4_B3c | 
[V:4] z12 | 
[V:1] F2D2F3E/D/C4 | 
[V:2] z12 | 
[V:3] d3c/_B/A2_B4A2 | 
[V:4] z12 | 
[V:1] _B,4z2F2G2_B2 | 
[V:2] z12 | 
[V:3] _B8_B3c | 
[V:4] z12 | 
[V:1] A2F2G3F/G/A4 | 
[V:2] z12 | 
[V:3] d4c4F4 | 
[V:4] z12 | 
[V:1] _B2c3BAGB3A | 
[V:2] z12 | 
[V:3] _E6F2G3A | 
[V:4] z12 | 
[V:1] F2G3FF4E2 | 
[V:2] z12 | 
[V:3] _B4F4G4 | 
[V:4] z12 | 
[V:1] F3GA4_B4 | 
[V:2] c6d2e4 | 
[V:3] F8z2G2 | 
[V:4] C6A,2G,4 | 
[V:1] A4z2G2A3_B | 
[V:2] f4e2c4d2 | 
[V:3] A2_B2c4F4 | 
[V:4] F,2D,2C,4F,3G, | 
[V:1] c3_B/A/G2F2G4 | 
[V:2] c2A2c3B/A/G4 | 
[V:3] z2F2G2A2_B2c2 | 
[V:4] A,3G,/F,/E,2F,4E,2 | 
[V:1] A8z4 | 
[V:2] F4z2c2d2f2 | 
[V:3] A2d4c2A2_B2 | 
[V:4] F,8F,3G, | 
[V:1] z12 | 
[V:2] e2c2d3c/d/e4 | 
[V:3] c4_B4c4 | 
[V:4] A,4G,4C,4 | 
[V:1] z12 | 
[V:2] f2g3fedf3e | 
[V:3] d2_B4AGF4 | 
[V:4] _B,,6C,2D,3E, | 
[V:1] z12 | 
[V:2] c2d3cc4B2 | 
[V:3] z2A2G2E2F4 | 
[V:4] F,4C,4D,4 | 
[V:1] G4A2G2z2F2 | 
[V:2] c3de4f4 | 
[V:3] G4c4_B2A2 | 
[V:4] C,8z2D,2 | 
[V:1] G2E2D4C4 | 
[V:2] e4z2d2e3f | 
[V:3] G2c4=B2c4- | 
[V:4] E,2F,2G,4C,4 | 
[V:1] E4F2G2A2G2- | 
[V:2] g3f/e/d2c2d4 | 
[V:3] c4z2c3A_B2 | 
[V:4] z2C,2D,2E,2F,2G,2 | 
[V:1] G2c4_B2G2A2 | 
[V:2] e8z4 | 
[V:3] c4A2_B2c2F2 | 
[V:4] E,2A,4G,2E,2F,2 | 
[V:1] _B2G2A4G3E | 
[V:2] z12 | 
[V:3] z2_B2c2A2_B2G2 | 
[V:4] G,4F,4G,4 | 
[V:1] F2A4GFE4 | 
[V:2] z12 | 
[V:3] F2f2d2_B2c4 | 
[V:4] A,2F,4E,D,C,4 | 
[V:1] F2E2F2G2E4 | 
[V:2] z12 | 
[V:3] _B2c2d4c4 | 
[V:4] z2E,2D,2B,,2C,4 | 
[V:1] F2A4G2A2z2 | 
[V:2] d4e2d2z2c2 | 
[V:3] A4_B4A2G2 | 
[V:4] D,4G,4F,2E,2 | 
[V:1] z12 | 
[V:2] d2B2A4G4 | 
[V:3] F2G2D4z2d2- | 
[V:4] D,2G,4^F,2G,4- | 
[V:1] G4F2G4A2 | 
[V:2] B4c2d2e2d2- | 
[V:3] d2G2A2_B2c2A2 | 
[V:4] G,4z2G,3E,F,2 | 
[V:1] _B2G2c4B2c2- | 
[V:2] d2g4f2d2e2 | 
[V:3] G4z4G4 | 
[V:4] G,4E,2F,2G,2C,2 | 
[V:1] c2d2_B2c2A2F2 | 
[V:2] f2d2e4d3B | 
[V:3] A4G4F4 | 
[V:4] z2F,2G,2E,2F,2D,2 | 
[V:1] E3/F/GA2FF4E2 | 
[V:2] c2e4dc=B4 | 
[V:3] G2C2c2d4_B2 | 
[V:4] C,2C2A,2F,2G,4 | 
[V:1] F12 ||  
[V:2] c12 ||  
[V:3] A12 ||  
[V:4] F,12 ||  
[V:1]  [K:C] [K:clef=treble][M:2/1]F8 | 
[V:2]  [K:C] [K:clef=treble-8][M:4/2]_B8- :
[V:3]  [K:C] [K:clef=treble-8][M:2/1]z8 | 
[V:4]  [K:C] [K:clef=bass][M:2/1]z8 | 
[V:1] G4F4 | 
[V:2] B8 | 
[V:3] z8 | 
[V:4] z8 | 
[V:1] A2G2A3G/A/ | 
[V:2] c8 :
[V:3] z8 | 
[V:4] z8 | 
[V:1] _B2F2G2FE | 
[V:2] _B8 | 
[V:3] z8 | 
[V:4] z8 | 
[V:1] D4z2G2 | 
[V:2] d4c4 :
[V:3] z8 | 
[V:4] z8 | 
[V:1] F2F4D2 | 
[V:2] d6cd | 
[V:3] z8 | 
[V:4] z8 | 
[V:1] C2_E2D4 | 
[V:2] _e4_B4 :
[V:3] z8 | 
[V:4] z8 | 
[V:1] C4z2F2 | 
[V:2] c4_B2A2 | 
[V:3] z8 | 
[V:4] z8 | 
[V:1] _E2G4F2 | 
[V:2] G8 :
[V:3] z8 | 
[V:4] z8 | 
[V:1] D4z2G2- | 
[V:2] z4c4 | 
[V:3] z8 | 
[V:4] z8 | 
[V:1] G2F2G3F/E/ | 
[V:2] _B4_B4- :
[V:3] z8 | 
[V:4] z8 | 
[V:1] D2F2G2_B2 | 
[V:2] B4G4 | 
[V:3] z8 | 
[V:4] z8 | 
[V:1] A3G/F/E2F2- | 
[V:2] F4A4 :
[V:3] z8 | 
[V:4] z8 | 
[V:1] F2D2E3D/E/ | 
[V:2] G8 | 
[V:3] z8 | 
[V:4] z8 | 
[V:1] F2c4A2 | 
[V:2] F8 :
[V:3] z8 | 
[V:4] z8 | 
[V:1] G4F4 | 
[V:2] z4_B4 | 
[V:3] z8 | 
[V:4] z8 | 
[V:1] z2F2E2G2- | 
[V:2] A4c4- :
[V:3] z8 | 
[V:4] z8 | 
[V:1] G2E2D4 | 
[V:2] c2_BA_B4 | 
[V:3] z8 | 
[V:4] z8 | 
[V:1] z2E2D2G2- | 
[V:2] G8 :
[V:3] z8 | 
[V:4] z8 | 
[V:1] G2F2E2C2 | 
[V:2] z4c4- | 
[V:3] z8 | 
[V:4] z8 | 
[V:1] E2F2D4 | 
[V:2] c4=B4 :
[V:3] z8 | 
[V:4] z8 | 
[V:1] C3DEFG2- | 
[V:2] c6_BA | 
[V:3] z8 | 
[V:4] z8 | 
[V:1] G2E2D2G2- | 
[V:2] G4_B4 :
[V:3] z8 | 
[V:4] z8 | 
[V:1] G2F2_E3C | 
[V:2] c4_e4 | 
[V:3] z8 | 
[V:4] z8 | 
[V:1] _B,4z2F2- | 
[V:2] d6c_B :
[V:3] z8 | 
[V:4] z8 | 
[V:1] F2E2D2G2- | 
[V:2] A4_B4- | 
[V:3] z8 | 
[V:4] z8 | 
[V:1] G2F2E2D2 | 
[V:2] B4G4 :
[V:3] z8 | 
[V:4] z8 | 
[V:1] F2EDC4 | 
[V:2] A6GA | 
[V:3] z8 | 
[V:4] z8 | 
[V:1] _B,2F3GA2- | 
[V:2] _B4f4- :
[V:3] z8 | 
[V:4] z8 | 
[V:1] A2F4_B2 | 
[V:2] f4d4 | 
[V:3] z8 | 
[V:4] z8 | 
[V:1] c2G2A2GA | 
[V:2] c8 :
[V:3] z8 | 
[V:4] z8 | 
[V:1] _B3A/G/F3E | 
[V:2] _B8 | 
[V:3] z8 | 
[V:4] z8 | 
[V:1] F2G3FED | 
[V:2] z4_B4 :
[V:3] z8 | 
[V:4] z8 | 
[V:1] C4z2E2- | 
[V:2] A4c4- | 
[V:3] z8 | 
[V:4] z8 | 
[V:1] E2C2E3F | 
[V:2] c4A4 :
[V:3] z8 | 
[V:4] z8 | 
[V:1] G3F/E/D4 | 
[V:2] G8 | 
[V:3] z8 | 
[V:4] z8 | 
[V:1] C4z2F2 | 
[V:2] z4A4 :
[V:3] z8 | 
[V:4] z8 | 
[V:1] G2_B2A2G2- | 
[V:2] G4c4- | 
[V:3] z8 | 
[V:4] z8 | 
[V:1] G2E2D4 | 
[V:2] c4_B4 :
[V:3] z8 | 
[V:4] z8 | 
[V:1] E2F4D2 | 
[V:2] A4F4 | 
[V:3] z8 | 
[V:4] z8 | 
[V:1] C2F3E/F/G2- | 
[V:2] A4_B4 :
[V:3] z8 | 
[V:4] z8 | 
[V:1] GFEDE3D/E/ | 
[V:2] G8 | 
[V:3] z8 | 
[V:4] z8 | 
[V:1] F8 ||  
[V:2] F8 ||  
[V:3] z8 ||  
[V:4] z8 ||  
[V:1]  [K:F] [K:clef=treble][M:3/1]z12 | 
[V:2]  [K:F] [K:clef=treble-8][M:3/1]f6d2c2f2- | 
[V:3]  [K:F] [K:clef=treble-8][M:3/1]z12 | 
[V:4]  [K:F] [K:clef=bass][M:3/1]F,6G,2A,4 | 
[V:1] z12 | 
[V:2] fd_e3dB2c4 | 
[V:3] z12 | 
[V:4] F,2G,2A,2B,4A,2 | 
[V:1] z12 | 
[V:2] B4z4B4 | 
[V:3] z12 | 
[V:4] B,3A,G,2F,2E,4 | 
[V:1] z12 | 
[V:2] A4B2d4cB | 
[V:3] z12 | 
[V:4] F,4B,,8 | 
[V:1] z12 | 
[V:2] A3Bc4d2f2 | 
[V:3] z12 | 
[V:4] F,4E,2F,4D,2 | 
[V:1] z12 | 
[V:2] e2g3ff4e2 | 
[V:3] z12 | 
[V:4] C,4F,4G,4 | 
[V:1] c6A2G2c2- | 
[V:2] f4z4g4 | 
[V:3] c6d2e4 | 
[V:4] F,8E,2C,2- | 
[V:1] cAB3AF2G4 | 
[V:2] e2d2c2B2c4 | 
[V:3] c2d2e2f4e2 | 
[V:4] C,2B,,2C,2D,2C,4 | 
[V:1] F4z4F4 | 
[V:2] d3c/B/A2G2F4 | 
[V:3] f3ed2c2B4 | 
[V:4] z2F,4E,2D,4 | 
[V:1] E4F2A4GF | 
[V:2] G4A6B2 | 
[V:3] c4F8 | 
[V:4] C,4z2F,4D,2 | 
[V:1] E3FG4A2c2 | 
[V:2] c2A2G4z2c2 | 
[V:3] c4B2c4A2 | 
[V:4] C,3D,E,4C,4 | 
[V:1] B2d3cc4=B2 | 
[V:2] d2B2c2A2G4 | 
[V:3] G4c4d4 | 
[V:4] z4z4z2G,2 | 
[V:1] c4z4d4 | 
[V:2] c2d2e4d4 | 
[V:3] c8B2G2- | 
[V:4] A,3B,C2A,2B,3C | 
[V:1] B2A2G2F2G4 | 
[V:2] d4z2c2d3e | 
[V:3] G2F2G2A2G4 | 
[V:4] D2D3CA,2B,4 | 
[V:1] A3G/F/E2D2C4 | 
[V:2] f3e/d/c2d2e2c2 | 
[V:3] z2c4B2A4 | 
[V:4] A,6z6 | 
[V:1] D4E6F2 | 
[V:2] =B=B2Ac4z4 | 
[V:3] G4z2c4A2 | 
[V:4] G,4C,4z2D,2 | 
[V:1] G2E2D4z2G2 | 
[V:2] c4d2f2e2c2 | 
[V:3] G3AB4G4 | 
[V:4] E,2C,2B,,4C,4 | 
[V:1] A2F2G2E2D4 | 
[V:2] d4G2c4B2 | 
[V:3] z4z6d2 | 
[V:4] F,4E,3F,G,4 | 
[V:1] G2A2B4A4 | 
[V:2] c2A2G4z2c2- | 
[V:3] e3fg2e2f3g | 
[V:4] C,4z2G,2A,2F,2- | 
[V:1] A4z2G2A3B | 
[V:2] c2d2e4d4 | 
[V:3] a2a3ge2f4 | 
[V:4] F,2D,2C,4F,3G, | 
[V:1] c3B/A/G2A2B2G2 | 
[V:2] c3de2d4c2 | 
[V:3] e6z6 | 
[V:4] A,3G,G,2F,2E,4 | 
[V:1] ^FF2EG4z4 | 
[V:2] d6B2A4 | 
[V:3] d4G4z2A2 | 
[V:4] D,4z2G,4F,2 | 
[V:1] G4A2c2B2G2 | 
[V:2] G4z4B4 | 
[V:3] B2G2F4G4 | 
[V:4] G,2B,2A,4G,4 | 
[V:1] A4D2G4F2 | 
[V:2] A4G4A2B2 | 
[V:3] c4B3cd4 | 
[V:4] z2F,2G,2E,2D,4 | 
[V:1] G2E2D4z2G2- | 
[V:2] G2c4=B2c4 | 
[V:3] G4z2d2e2c2- | 
[V:4] E,3F,G,4C,4 | 
[V:1] G2A2B4A4 | 
[V:2] z2c2d2e2f4 | 
[V:3] c2A2G4c3d | 
[V:4] z4G,4F,3E, | 
[V:1] G3AB2A4G2 | 
[V:2] e2c2d2e2f2e2 | 
[V:3] e3dd2c2B4 | 
[V:4] C,4B,,2C,2D,2E,2 | 
[V:1] A6F2E4 | 
[V:2] c2d3BB4A2 | 
[V:3] A4z2d4c2 | 
[V:4] F,4D,2B,,2C,4 | 
[V:1] D4z4F4 | 
[V:2] B4G2c2=B=B2A | 
[V:3] d2f2e4d4 | 
[V:4] B,,4C,4D,4 | 
[V:1] E4D4E2F2 | 
[V:2] c2A2B4c2d2- | 
[V:3] z2c2d2B2A4 | 
[V:4] C,4G,4z2D,2- | 
[V:1] D2G4^F2G4 | 
[V:2] dBG2A4B3c | 
[V:3] B3cd4G4 | 
[V:4] D,2E,2D,4z4 | 
[V:1] z2G2A2B2c4 | 
[V:2] d4z2d2e2c2 | 
[V:3] z4d4c3B | 
[V:4] G,4F,2G,2C,4 | 
[V:1] B2G2A2B2c2B2 | 
[V:2] d8z2d2 | 
[V:3] G4F2G2A2B2 | 
[V:4] G,3F,D,2G,2F,2G,2 | 
[V:1] G2A3FF4E2 | 
[V:2] e2c3AB2c4 | 
[V:3] c4A2F2G4 | 
[V:4] C,2F,4D,2C,4 | 
[V:1] F12 |]  
[V:2] c12 |]  
[V:3] F12 |]  
[V:4] F,12 |]  



